X: 30804
T: Other High, The
R: reel
M: 4/4
K: Dmajor
|:f2df ecAG|FD (3EFG AdcA|G2FG Adde|fded (3Bcd eg|
f2df ecAG|FD (3EFG AdcA|G2FG Addc|A2 GE EDD2:|
|:a2fa dafa|a2fa dafa|b2gb ebgb|ebgb ebgb|
a2fa dafa|a2fa dafa|bgaf gefd|ABAG FDD2:|

